src/images/near-footer-logo.svg

<svg height="40" viewBox="0 0 133 40" width="133" xmlns="http://www.w3.org/2000/svg" xmlns:xlink="http://www.w3.org/1999/xlink"><linearGradient id="a" x1="23.95926%" x2="78.179935%" y1="77.046659%" y2="21.068892%"><stop offset="0" stop-color="#4a4f54"/><stop offset=".274282095" stop-color="#4a4f54" stop-opacity="0"/><stop offset=".68042652" stop-color="#4a4f54" stop-opacity="0"/><stop offset="1" stop-color="#4a4f54"/></linearGradient><g fill="none" fill-rule="evenodd" opacity=".5"><path d="m4.71192661 39.8165138c1.31799371.001612 2.57107372-.5719904 3.43119266-1.5706422l30.97981653-35.93761472c-.826399-1.32212217-2.2757145-2.12514003-3.8348624-2.12477064-1.3106303-.00151509-2.5573113.5662537-3.4165138 1.5559633l-31.13761465 35.72477066c.79598909 1.4526199 2.32157071 2.3547396 3.97798166 2.3522936z" fill="url(#a)"/><g fill="#4a4f54"><path d="m4.71192661 39.8165138c.72248139-.0000449 1.43453432-.1723969 2.07706422-.5027523v-30.00733948l24.06605507 28.88073398c.8621745 1.0321946 2.1376634 1.6289459 3.4825688 1.6293578h.9504587c2.5001499-.0020236 4.5264168-2.0282905 4.5284404-4.5284404v-30.57614679c-.0020236-2.50014988-2.0282905-4.52641678-4.5284404-4.52844037-.7168063.00106576-1.4233051.17077634-2.0623853.49541284v30.01467892l-24.08073397-28.88073396c-.86217457-1.03219459-2.13766343-1.62894597-3.48256881-1.6293578h-.95045871c-2.50014988.00202359-4.52641678 2.02829049-4.52844037 4.52844037v30.57614679c.00202359 2.5001499 2.02829049 4.5264168 4.52844037 4.5284404z"/><path d="m69.6183486 10.3669725v19.266055c-.0019764.1511788-.1240506.2732529-.2752293.2752294h-2.0220184c-.9345102.0007279-1.8053698-.4734067-2.3119266-1.2587156l-9.093578-14.0550459.3119266 7.0201835v8.0183486c-.0019764.1511788-.1240506.2732529-.2752293.2752294h-2.6495413c-.1511787-.0019765-.2732529-.1240506-.2752294-.2752294v-19.266055c.0019765-.1511788.1240507-.2732529.2752294-.2752294h1.9926605c.933286.0004964 1.8030873.4726742 2.3119266 1.2550459l9.093578 14.0330275-.2788991-6.9944954v-8.0183486c0-.152005.1232244-.2752294.2752294-.2752294h2.6605505c.1454197.009579.258948.1295033.2605504.2752294z"/><path d="m96.7009174 29.9082569h-2.8036697c-.0888878-.0008409-.1718969-.0445604-.222873-.1173834s-.0636423-.1657825-.0340077-.2495891l7.423853-19.1853211c.062715-.1582709.215084-.2627525.385321-.2642202h3.504587c.170238.0014677.322607.1059493.385322.2642202l7.423853 19.1779817c.029634.0838065.016968.1767661-.034008.2495891s-.133985.1165424-.222873.1173833h-2.781651c-.114832.0005222-.218245-.0693914-.260551-.1761468l-6-15.7798165c-.039507-.1088489-.142919-.1813281-.258715-.1813281-.115797 0-.219209.0724792-.258716.1813281l-5.9853211 15.7798165c-.0399164.1096438-.1438686.1828496-.2605505.1834863z"/><path d="m132.234862 29.4642202-5.570642-7.1155963c3.144954-.5944955 4.983486-2.7155964 4.983486-5.9706422 0-3.7394496-2.433027-6.2862386-6.737614-6.2862386h-7.768808c-.226994 0-.411009.1840151-.411009.4110092-.000974.7013911.27697 1.3743886.772585 1.8706916.495614.4963029 1.168225.7751806 1.869617.77518h5.2c2.601835 0 3.849541 1.33211 3.849541 3.2550458s-1.218348 3.3027523-3.849541 3.3027523h-7.431193c-.227586.0020141-.411018.1870836-.411009.4146789v9.5412844c0 .152005.123225.2752294.27523.2752294h2.649541c.151179-.0019765.273253-.1240506.275229-.2752294v-7.1412844h3.056881l4.833027 6.3082569c.524735.6843004 1.339518 1.0835441 2.201835 1.0788991h2.01101c.102279-.0056648.19295-.0676629.235339-.1609175.042388-.0932546.02948-.2023345-.033505-.2831192z"/><path d="m88.3192661 10.0917431h-12.293578c-.2026733 0-.3669725.1642992-.3669725.3669725 0 1.4855953 1.2043129 2.6899083 2.6899083 2.6899083h9.9706422c.0732965.0009973.1438832-.0276796.1957165-.0795129s.0805102-.1224199.0795128-.1957165v-2.506422c0-.152005-.1232244-.2752294-.2752293-.2752294zm0 16.759633h-9.174312c-.1511787-.0019764-.2732529-.1240506-.2752293-.2752293v-4.9688074c0-.1520049.1232244-.2752293.2752293-.2752293h8.480734c.152005 0 .2752293-.1232244.2752293-.2752294v-2.5100917c0-.152005-.1232243-.2752294-.2752293-.2752294h-11.5559633c-.2275865.0020142-.4110181.1870836-.4110092.4146789v10.8073395c-.000979.1096408.0418911.2151279.1190766.2930025.0771856.0778747.1822874.1216808.2919326.1216764h12.2495413c.1520049 0 .2752293-.1232244.2752293-.2752294v-2.506422c.0009974-.0732966-.0276795-.1438832-.0795128-.1957165s-.12242-.0805102-.1957165-.0795129z" fill-rule="nonzero"/></g></g></svg>

<?xml version="1.0" encoding="UTF-8"?>
<svg width="133px" height="40px" viewBox="0 0 133 40" version="1.1" xmlns="http://www.w3.org/2000/svg" xmlns:xlink="http://www.w3.org/1999/xlink">
    <!-- Generator: Sketch 54.1 (76490) - https://sketchapp.com -->
    <title>near-footer-logo</title>
    <desc>Created with Sketch.</desc>
    <defs>
        <linearGradient x1="23.9592595%" y1="77.0466588%" x2="78.1799352%" y2="21.0688923%" id="linearGradient-1">
            <stop stop-color="#4A4F54" offset="0%"></stop>
            <stop stop-color="#4A4F54" stop-opacity="0" offset="27.4282095%"></stop>
            <stop stop-color="#4A4F54" stop-opacity="0" offset="68.042652%"></stop>
            <stop stop-color="#4A4F54" offset="100%"></stop>
        </linearGradient>
    </defs>
    <g id="Symbols" stroke="none" stroke-width="1" fill="none" fill-rule="evenodd" opacity="0.5">
        <g id="Footer" transform="translate(-30.000000, -55.000000)">
            <g id="near-footer-logo">
                <g transform="translate(30.000000, 55.000000)">
                    <g id="near_logo" transform="translate(-0.000000, 0.000000)">
                        <path d="M4.71192661,39.8165138 C6.02992032,39.8181258 7.28300033,39.2445234 8.14311927,38.2458716 L39.1229358,2.30825688 C38.2965368,0.986134713 36.8472213,0.183116846 35.2880734,0.183486239 C33.9774431,0.181971146 32.7307621,0.749739941 31.8715596,1.73944954 L0.733944954,37.4642202 C1.52993404,38.9168401 3.05551566,39.8189598 4.71192661,39.8165138 Z" id="Path" fill="url(#linearGradient-1)"></path>
                        <path d="M4.71192661,39.8165138 C5.434408,39.8164689 6.14646093,39.6441169 6.78899083,39.3137615 L6.78899083,9.30642202 L30.8550459,38.187156 C31.7172204,39.2193506 32.9927093,39.8161019 34.3376147,39.8165138 L35.2880734,39.8165138 C37.7882233,39.8144902 39.8144902,37.7882233 39.8165138,35.2880734 L39.8165138,4.71192661 C39.8144902,2.21177673 37.7882233,0.185509833 35.2880734,0.183486239 L35.2880734,0.183486239 C34.5712671,0.184552003 33.8647683,0.354262577 33.2256881,0.678899083 L33.2256881,30.693578 L9.14495413,1.81284404 C8.28277956,0.780649446 7.0072907,0.183898074 5.66238532,0.183486239 L4.71192661,0.183486239 C2.21177673,0.185509833 0.185509833,2.21177673 0.183486239,4.71192661 L0.183486239,35.2880734 C0.185509833,37.7882233 2.21177673,39.8144902 4.71192661,39.8165138 Z" id="Path" fill="#4A4F54"></path>
                        <path d="M69.6183486,10.3669725 L69.6183486,29.6330275 C69.6163722,29.7842063 69.494298,29.9062804 69.3431193,29.9082569 L67.3211009,29.9082569 C66.3865907,29.9089848 65.5157311,29.4348502 65.0091743,28.6495413 L55.9155963,14.5944954 L56.2275229,21.6146789 L56.2275229,29.6330275 C56.2255465,29.7842063 56.1034723,29.9062804 55.9522936,29.9082569 L53.3027523,29.9082569 C53.1515736,29.9062804 53.0294994,29.7842063 53.0275229,29.6330275 L53.0275229,10.3669725 C53.0294994,10.2157937 53.1515736,10.0937196 53.3027523,10.0917431 L55.2954128,10.0917431 C56.2286988,10.0922395 57.0985001,10.5644173 57.6073394,11.346789 L66.7009174,25.3798165 L66.4220183,18.3853211 L66.4220183,10.3669725 C66.4220183,10.2149675 66.5452427,10.0917431 66.6972477,10.0917431 L69.3577982,10.0917431 C69.5032179,10.1013221 69.6167462,10.2212464 69.6183486,10.3669725 Z" id="Path" fill="#4A4F54"></path>
                        <path d="M96.7009174,29.9082569 L93.8972477,29.9082569 C93.8083599,29.907416 93.7253508,29.8636965 93.6743747,29.7908735 C93.6233986,29.7180505 93.6107324,29.625091 93.640367,29.5412844 L101.06422,10.3559633 C101.126935,10.1976924 101.279304,10.0932108 101.449541,10.0917431 L104.954128,10.0917431 C105.124366,10.0932108 105.276735,10.1976924 105.33945,10.3559633 L112.763303,29.533945 C112.792937,29.6177515 112.780271,29.7107111 112.729295,29.7835341 C112.678319,29.8563571 112.59531,29.9000765 112.506422,29.9009174 L109.724771,29.9009174 C109.609939,29.9014396 109.506526,29.831526 109.46422,29.7247706 L103.46422,13.9449541 C103.424713,13.8361052 103.321301,13.763626 103.205505,13.763626 C103.089708,13.763626 102.986296,13.8361052 102.946789,13.9449541 L96.9614679,29.7247706 C96.9215515,29.8344144 96.8175993,29.9076202 96.7009174,29.9082569 L96.7009174,29.9082569 Z" id="Path" fill="#4A4F54"></path>
                        <path d="M132.234862,29.4642202 L126.66422,22.3486239 C129.809174,21.7541284 131.647706,19.6330275 131.647706,16.3779817 C131.647706,12.6385321 129.214679,10.0917431 124.910092,10.0917431 L117.141284,10.0917431 C116.91429,10.0917431 116.730275,10.2757582 116.730275,10.5027523 L116.730275,10.5027523 C116.729301,11.2041434 117.007245,11.8771409 117.50286,12.3734439 C117.998474,12.8697468 118.671085,13.1486245 119.372477,13.1486239 L124.572477,13.1486239 C127.174312,13.1486239 128.422018,14.4807339 128.422018,16.4036697 C128.422018,18.3266055 127.20367,19.706422 124.572477,19.706422 L117.141284,19.706422 C116.913698,19.7084361 116.730266,19.8935056 116.730275,20.1211009 L116.730275,29.6623853 C116.730275,29.8143903 116.8535,29.9376147 117.005505,29.9376147 L119.655046,29.9376147 C119.806225,29.9356382 119.928299,29.8135641 119.930275,29.6623853 L119.930275,22.5211009 L122.987156,22.5211009 L127.820183,28.8293578 C128.344918,29.5136582 129.159701,29.9129019 130.022018,29.9082569 L132.033028,29.9082569 C132.135307,29.9025921 132.225978,29.840594 132.268367,29.7473394 C132.310755,29.6540848 132.297847,29.5450049 132.234862,29.4642202 L132.234862,29.4642202 Z" id="Path" fill="#4A4F54"></path>
                        <path d="M88.3192661,10.0917431 L76.0256881,10.0917431 C75.8230148,10.0917431 75.6587156,10.2560423 75.6587156,10.4587156 L75.6587156,10.4587156 C75.6587156,11.9443109 76.8630285,13.1486239 78.3486239,13.1486239 L88.3192661,13.1486239 C88.3925626,13.1496212 88.4631493,13.1209443 88.5149826,13.069111 C88.5668159,13.0172777 88.5954928,12.9466911 88.5944954,12.8733945 L88.5944954,10.3669725 C88.5944954,10.2149675 88.471271,10.0917431 88.3192661,10.0917431 L88.3192661,10.0917431 Z M88.3192661,26.8513761 L79.1449541,26.8513761 C78.9937754,26.8493997 78.8717012,26.7273255 78.8697248,26.5761468 L78.8697248,21.6073394 C78.8697248,21.4553345 78.9929492,21.3321101 79.1449541,21.3321101 L87.6256881,21.3321101 C87.7776931,21.3321101 87.9009174,21.2088857 87.9009174,21.0568807 L87.9009174,18.546789 C87.9009174,18.394784 87.7776931,18.2715596 87.6256881,18.2715596 L76.0697248,18.2715596 C75.8421383,18.2735738 75.6587067,18.4586432 75.6587156,18.6862385 L75.6587156,29.493578 C75.6577366,29.6032188 75.7006067,29.7087059 75.7777922,29.7865805 C75.8549778,29.8644552 75.9600796,29.9082613 76.0697248,29.9082569 L88.3192661,29.9082569 C88.471271,29.9082569 88.5944954,29.7850325 88.5944954,29.6330275 L88.5944954,27.1266055 C88.5954928,27.0533089 88.5668159,26.9827223 88.5149826,26.930889 C88.4631493,26.8790557 88.3925626,26.8503788 88.3192661,26.8513761 Z" id="Shape" fill="#4A4F54" fill-rule="nonzero"></path>
                    </g>
                </g>
            </g>
        </g>
    </g>
</svg>
